X:349
T:Mount Hills
M:4/4
L:1/8
K:G
G2d2 B2B2 | ABAG F2D2 | G2d2 B2B2 | d2 cB A4 | 
G2d2 B2B2 | ABAG F2D2 | G2 FE c2 BA | F2F2 G4 :| 
F3 G A2B2 | c2B2 A2 GF | G2E2 c2d2 | B4 A4 | 
dedc B2B2 | G2G2 E2B2 | c2 BA GFGA | A4 G4 :| 

